X:1
T:Title
%%score { ( 1 3 ) | ( 2 4 ) }
L:1/8
Q:1/4=118
M:3/4
K:Eb
V:1 treble nm="Grand Piano"
V:3 treble 
V:2 bass 
V:4 bass 
V:1
 z2 z2 [GB]>A | G>G G2 G2 | z2 z2 z [EG]- | [EG]2 z2 z2 | [B,EG]4 [EGB]>[B,FA] | %5
 [B,EG]2 [B,FA]2 [EGB]2 | z2 [EGB]4 | z6 | [FA][GB] .A2 [DF]E- | [EG]2 [EGB]>[CFA] [B,EG]2 | %10
 [A,DF]2 [G,E]4 |] %11
V:2
 z2 z2 [E,E] z/ F/ | [E,B,E]>[E,B,E] [E,B,E]2 [E,B,E]2 | [F,B,D]4 [B,,B,]2 | %3
 [B,,B,]2 (3:2:2[B,,B,]/[B,,B,]-[B,,B,] [B,,B,]2 | E,4 E,>E, | E,2 E,2 E,2 | E,2 z2 B,,2- | %7
 B,,.[B,,B,] [B,,B,]2 [B,,B,]2 | [B,,B,]B,- [B,-F]B,/-[B,E-]/ [A,E]2 | .B,2 E,>A,, B,,2 | %10
 B,,2 E,4 |] %11
V:3
 x6 | x6 | A4 .[FA]2 | [DF]2 (3:2:2[DF]/[DF]-[DF] [DF]2 | x6 | x6 | [EAc]2 z2 [DFA]2- | %7
 [DFA].[EG] [DF]2 [EG]2 | z2 z z/ G/- GG, | x6 | x6 |] %11
V:4
 x6 | x6 | x6 | x6 | x6 | x6 | z2 E,4 | x6 | z B,,- B,,3 E,- | E,2 z2 z2 | x6 |] %11

